static/assets/img/icons/theme/devices/generator.svg

<svg height="24" viewBox="0 0 24 24" width="24" xmlns="http://www.w3.org/2000/svg"><g fill="none" fill-rule="evenodd"><path d="m0 0h24v24h-24z" opacity="0"/><g fill="#000"><rect height="14" opacity=".3" rx="2" width="20" x="2" y="6"/><path d="m5 4h2c.55228475 0 1 .44771525 1 1v1h-4v-1c0-.55228475.44771525-1 1-1zm12 0h2c.5522847 0 1 .44771525 1 1v1h-4v-1c0-.55228475.4477153-1 1-1z"/><path d="m7 12v-1c0-.5522847.44771525-1 1-1s1 .4477153 1 1v1h1c.5522847 0 1 .4477153 1 1s-.4477153 1-1 1h-1v1c0 .5522847-.44771525 1-1 1s-1-.4477153-1-1v-1h-1c-.55228475 0-1-.4477153-1-1s.44771525-1 1-1z"/><rect height="2" rx="1" width="4" x="14" y="12"/></g></g></svg>

<svg width="24px" height="24px" viewBox="0 0 24 24" version="1.1" xmlns="http://www.w3.org/2000/svg" xmlns:xlink="http://www.w3.org/1999/xlink">
    <title>Icon For Generator</title>
    <g stroke="none" stroke-width="1" fill="none" fill-rule="evenodd">
        <rect opacity="0" x="0" y="0" width="24" height="24"></rect>
        <rect fill="#000000" opacity="0.3" x="2" y="6" width="20" height="14" rx="2"></rect>
        <path d="M5,4 L7,4 C7.55228475,4 8,4.44771525 8,5 L8,6 L4,6 L4,5 C4,4.44771525 4.44771525,4 5,4 Z M17,4 L19,4 C19.5522847,4 20,4.44771525 20,5 L20,6 L16,6 L16,5 C16,4.44771525 16.4477153,4 17,4 Z" fill="#000000"></path>
        <path d="M7,12 L7,11 C7,10.4477153 7.44771525,10 8,10 C8.55228475,10 9,10.4477153 9,11 L9,12 L10,12 C10.5522847,12 11,12.4477153 11,13 C11,13.5522847 10.5522847,14 10,14 L9,14 L9,15 C9,15.5522847 8.55228475,16 8,16 C7.44771525,16 7,15.5522847 7,15 L7,14 L6,14 C5.44771525,14 5,13.5522847 5,13 C5,12.4477153 5.44771525,12 6,12 L7,12 Z" fill="#000000"></path>
        <rect fill="#000000" x="14" y="12" width="4" height="2" rx="1"></rect>
    </g>
</svg>
